img/icon-payment/logo-american-express.svg

<svg width="56" height="36" viewBox="0 0 56 36" fill="none" xmlns="http://www.w3.org/2000/svg">
<path fill-rule="evenodd" clip-rule="evenodd" d="M0 0H56V19.44V24.7V36H0V17.68V15.18V0Z" fill="#016FD0"/>
<path fill-rule="evenodd" clip-rule="evenodd" d="M10.8428 28.9596V20.1672H20.1322L21.1264 21.4721L22.1516 20.1672H55.8918V28.3382C55.8918 28.3382 55.0218 28.9285 53.9966 28.9285H35.3246L34.2061 27.5304V28.9285H30.509V26.5673C30.509 26.5673 30.0119 26.909 28.9245 26.909H27.6818V28.9285H22.0895L21.0953 27.5925L20.07 28.9285L10.8428 28.9596Z" fill="white"/>
<path fill-rule="evenodd" clip-rule="evenodd" d="M0 13.5809L2.08157 8.67212H5.71656L6.89715 11.4061V8.67212H11.4021L12.1166 10.6605L12.8001 8.67212H33.0256V9.6663C33.0256 9.6663 34.0819 8.67212 35.8217 8.67212L42.3771 8.70319L43.5577 11.4061V8.67212H47.348L48.3733 10.2255V8.67212H52.1947V17.4644H48.3733L47.3791 15.911V17.4644H41.849L41.2897 16.0664H39.7984L39.2392 17.4644H35.48C33.9887 17.4644 33.0256 16.5013 33.0256 16.5013V17.4644H27.3711L26.2527 16.0664V17.4644H5.1884L4.62917 16.0664H3.13789L2.57867 17.4644H0V13.5809Z" fill="white"/>
<path fill-rule="evenodd" clip-rule="evenodd" d="M2.82721 9.75952L0 16.346H1.83303L2.36119 15.0411H5.40588L5.93404 16.346H7.8292L5.00199 9.75952H2.82721ZM3.88353 11.2819L4.81558 13.5809H2.95148L3.88353 11.2819Z" fill="#016FD0"/>
<path fill-rule="evenodd" clip-rule="evenodd" d="M7.98438 16.346V9.75952H10.6252L12.1475 14.0159L13.6077 9.75952H16.2175V16.346H14.5708V11.4993L12.831 16.346H11.4019L9.63099 11.4993V16.346H7.98438Z" fill="#016FD0"/>
<path fill-rule="evenodd" clip-rule="evenodd" d="M17.3359 16.346V9.75952H22.7107V11.2197H19.0136V12.3693H22.6175V13.7363H19.0136V14.9169H22.7107V16.346H17.3359Z" fill="#016FD0"/>
<path fill-rule="evenodd" clip-rule="evenodd" d="M23.6426 9.75952V16.346H25.2892V14.0159H25.9727L27.93 16.346H29.9494L27.7747 13.9227C28.6756 13.8605 29.5766 13.0838 29.5766 11.9032C29.5766 10.5052 28.4892 9.75952 27.2776 9.75952H23.6426ZM25.2892 11.2197H27.1533C27.6193 11.2197 27.93 11.5615 27.93 11.9032C27.93 12.3382 27.495 12.5867 27.1844 12.5867H25.2892V11.2197Z" fill="#016FD0"/>
<path fill-rule="evenodd" clip-rule="evenodd" d="M31.9687 16.346H30.291V9.75952H31.9687V16.346Z" fill="#016FD0"/>
<path fill-rule="evenodd" clip-rule="evenodd" d="M35.9461 16.346H35.5733C33.8335 16.346 32.7461 14.979 32.7461 13.0838C32.7461 11.1576 33.8024 9.75952 36.0083 9.75952H37.8102V11.3129H35.9151C35.0141 11.3129 34.3927 12.0275 34.3927 13.0838C34.3927 14.3576 35.1073 14.8858 36.1636 14.8858H36.5986L35.9461 16.346Z" fill="#016FD0"/>
<path fill-rule="evenodd" clip-rule="evenodd" d="M39.5186 9.75952L36.6914 16.346H38.5244L39.0526 15.0411H42.0973L42.6254 16.346H44.5206L41.6934 9.75952H39.5186ZM40.5749 11.2819L41.507 13.5809H39.6429L40.5749 11.2819Z" fill="#016FD0"/>
<path fill-rule="evenodd" clip-rule="evenodd" d="M44.6758 16.346V9.75952H46.7574L49.4292 13.8916V9.75952H51.0758V16.346H49.0564L46.3224 12.0896V16.346H44.6758Z" fill="#016FD0"/>
<path fill-rule="evenodd" clip-rule="evenodd" d="M11.9922 27.8411V21.2546H17.3359V22.7459H13.6388V23.8644H17.2427V25.2314H13.6388V26.412H17.3359V27.8411H11.9922Z" fill="#016FD0"/>
<path fill-rule="evenodd" clip-rule="evenodd" d="M38.2451 27.8411V21.2546H43.6199V22.7459H39.9228V23.8644H43.5267V25.2314H39.9228V26.412H43.6199V27.8411H38.2451Z" fill="#016FD0"/>
<path fill-rule="evenodd" clip-rule="evenodd" d="M17.5533 27.8411L20.1631 24.5789L17.4912 21.2546H19.5417L21.1573 23.3362L22.7417 21.2546H24.7301L22.0893 24.5479L24.699 27.8411H22.6485L21.0951 25.8217L19.6039 27.8411H17.5533Z" fill="#016FD0"/>
<path fill-rule="evenodd" clip-rule="evenodd" d="M24.917 21.2546V27.8411H26.5947V25.7595H28.3345C29.7947 25.7595 30.9132 24.9828 30.9132 23.4605C30.9132 22.2178 30.0433 21.2546 28.552 21.2546H24.917ZM26.5947 22.7459H28.4277C28.8937 22.7459 29.2355 23.0255 29.2355 23.4916C29.2355 23.9265 28.8937 24.2372 28.4277 24.2372H26.6257V22.7459H26.5947Z" fill="#016FD0"/>
<path fill-rule="evenodd" clip-rule="evenodd" d="M31.6279 21.2546V27.8411H33.2745V25.511H33.958L35.9154 27.8411H37.9348L35.76 25.4178C36.661 25.3556 37.562 24.5789 37.562 23.3983C37.562 22.0003 36.4746 21.2546 35.2629 21.2546H31.6279ZM33.2435 22.7459H35.1076C35.5736 22.7459 35.8843 23.0877 35.8843 23.4294C35.8843 23.8644 35.4493 24.1129 35.1386 24.1129H33.2435V22.7459Z" fill="#016FD0"/>
<path fill-rule="evenodd" clip-rule="evenodd" d="M44.3649 27.8411V26.412H47.6582C48.1553 26.412 48.3417 26.1634 48.3417 25.8527C48.3417 25.5731 48.1242 25.2935 47.6582 25.2935H46.1669C44.862 25.2935 44.1475 24.5168 44.1475 23.3362C44.1475 22.2799 44.7999 21.2546 46.7261 21.2546H49.9262L49.2427 22.7459H46.4776C45.9494 22.7459 45.7941 23.0255 45.7941 23.2741C45.7941 23.5537 45.9805 23.8333 46.3844 23.8333H47.9378C49.3669 23.8333 49.9883 24.6411 49.9883 25.7285C49.9883 26.878 49.3048 27.81 47.8446 27.81L44.3649 27.8411Z" fill="#016FD0"/>
<path fill-rule="evenodd" clip-rule="evenodd" d="M50.4235 27.8411V26.412H53.5614C54.0585 26.412 54.2449 26.1634 54.2449 25.8527C54.2449 25.5731 54.0275 25.2935 53.5614 25.2935H52.2255C50.9206 25.2935 50.2061 24.5168 50.2061 23.3362C50.2061 22.2799 50.8585 21.2546 52.7847 21.2546H55.9226L55.2391 22.7459H52.5362C52.008 22.7459 51.8527 23.0255 51.8527 23.2741C51.8527 23.5537 52.0391 23.8333 52.443 23.8333H53.8721C55.3013 23.8333 55.9226 24.6411 55.9226 25.7285C55.9226 26.878 55.2391 27.81 53.7789 27.81L50.4235 27.8411Z" fill="#016FD0"/>
</svg>

<svg width="56" height="36" fill="none" xmlns="http://www.w3.org/2000/svg"><path fill-rule="evenodd" clip-rule="evenodd" d="M0 0h56v36H0V0z" fill="#016FD0"/><path fill-rule="evenodd" clip-rule="evenodd" d="M10.843 28.96v-8.793h9.29l.993 1.305 1.026-1.305h33.74v8.171s-.87.59-1.895.59H35.325l-1.119-1.398v1.398H30.51v-2.36s-.497.341-1.585.341h-1.242v2.02H22.09l-.995-1.336-1.025 1.335-9.227.032zM0 13.58l2.082-4.908h3.635l1.18 2.734V8.672h4.505l.715 1.989.683-1.989h20.226v.994s1.056-.994 2.796-.994l6.555.031 1.18 2.703V8.672h3.791l1.025 1.553V8.672h3.822v8.792h-3.822l-.994-1.553v1.553h-5.53l-.56-1.398H39.8l-.56 1.398H35.48c-1.491 0-2.454-.963-2.454-.963v.963H27.37l-1.118-1.398v1.398H5.188l-.559-1.398H3.138l-.56 1.398H0v-3.883z" fill="#fff"/><path fill-rule="evenodd" clip-rule="evenodd" d="M2.827 9.76L0 16.346h1.833l.528-1.305h3.045l.528 1.305h1.895L5.002 9.76H2.827zm1.057 1.522l.932 2.299H2.95l.933-2.3zM7.984 16.346V9.76h2.641l1.523 4.256 1.46-4.256h2.61v6.586H14.57v-4.847l-1.74 4.847h-1.43l-1.77-4.847v4.847H7.984zM17.336 16.346V9.76h5.375v1.46h-3.697v1.15h3.604v1.366h-3.604v1.18h3.697v1.43h-5.375zM23.643 9.76v6.586h1.646v-2.33h.684l1.957 2.33h2.02l-2.175-2.423c.9-.063 1.802-.84 1.802-2.02 0-1.398-1.088-2.143-2.3-2.143h-3.634zm1.646 1.46h1.864c.466 0 .777.341.777.683 0 .435-.435.684-.746.684H25.29V11.22zM31.969 16.346H30.29V9.76h1.678v6.586zM35.946 16.346h-.373c-1.74 0-2.827-1.367-2.827-3.262 0-1.926 1.056-3.324 3.262-3.324h1.802v1.553h-1.895c-.9 0-1.522.714-1.522 1.77 0 1.275.714 1.803 1.77 1.803h.436l-.653 1.46zM39.519 9.76l-2.828 6.586h1.833l.529-1.305h3.044l.528 1.305h1.896L41.693 9.76H39.52zm1.056 1.522l.932 2.299h-1.864l.932-2.3zM44.676 16.346V9.76h2.081l2.672 4.132V9.76h1.647v6.586h-2.02l-2.734-4.256v4.256h-1.646zM11.992 27.841v-6.586h5.344v1.49h-3.697v1.12h3.604v1.366h-3.604v1.181h3.697v1.43h-5.344zM38.245 27.841v-6.586h5.375v1.49h-3.697v1.12h3.604v1.366h-3.604v1.181h3.697v1.43h-5.375zM17.553 27.841l2.61-3.262-2.672-3.324h2.05l1.616 2.081 1.585-2.081h1.988l-2.64 3.293 2.609 3.293h-2.05l-1.554-2.02-1.491 2.02h-2.05zM24.917 21.255v6.586h1.678V25.76h1.74c1.46 0 2.578-.776 2.578-2.299 0-1.242-.87-2.205-2.361-2.205h-3.635zm1.678 1.49h1.833c.466 0 .807.28.807.747 0 .434-.341.745-.807.745h-1.802v-1.491h-.031zM31.628 21.255v6.586h1.647v-2.33h.683l1.957 2.33h2.02l-2.175-2.423c.901-.062 1.802-.84 1.802-2.02 0-1.398-1.087-2.143-2.3-2.143h-3.634zm1.615 1.49h1.865c.466 0 .776.343.776.684 0 .435-.435.684-.745.684h-1.896v-1.367zM44.365 27.841v-1.429h3.293c.497 0 .684-.249.684-.56 0-.279-.218-.558-.684-.558h-1.491c-1.305 0-2.02-.777-2.02-1.958 0-1.056.653-2.081 2.58-2.081h3.2l-.684 1.49h-2.765c-.529 0-.684.28-.684.53 0 .279.187.558.59.558h1.554c1.429 0 2.05.808 2.05 1.896 0 1.149-.683 2.081-2.143 2.081l-3.48.031zM50.423 27.841v-1.429h3.138c.498 0 .684-.249.684-.56 0-.279-.217-.558-.684-.558h-1.336c-1.304 0-2.019-.777-2.019-1.958 0-1.056.652-2.081 2.579-2.081h3.138l-.684 1.49h-2.703c-.528 0-.683.28-.683.53 0 .279.186.558.59.558h1.43c1.428 0 2.05.808 2.05 1.896 0 1.149-.684 2.081-2.144 2.081l-3.356.031z" fill="#016FD0"/></svg>
